frontend/public/svg/hand gestures/tap-1.svg

<svg width="113" height="158" viewBox="0 0 113 158" fill="none" xmlns="http://www.w3.org/2000/svg">
<g clip-path="url(#clip0)">
<path d="M71.181 70.9653C69.1917 67.5904 66.9194 65.8327 63.8622 65.288C60.7209 64.7294 58.1586 65.9509 55.3554 68.0209C55.2641 66.703 55.1807 65.4153 55.098 64.1486C54.8906 60.9456 54.695 57.9206 54.3917 54.8817C54.2696 53.6491 54.1508 52.4157 54.0353 51.1813C53.5234 45.7993 52.9939 40.2342 52.0179 34.8385C51.5001 31.9762 50.18 28.8271 47.9905 25.2107C45.6191 21.3022 41.6241 20.4522 37.3086 22.9351C33.3844 25.1916 32.4557 29.0771 32.0855 32.2092C31.7993 34.6199 31.7542 37.091 31.7103 39.4814L31.6878 40.6412C31.6475 42.4999 31.6058 44.3582 31.5625 46.2161C31.4142 52.6587 31.2605 59.3199 31.2632 65.8734C31.2632 70.7408 31.4192 75.687 31.5689 80.4704C31.6345 82.5011 31.6961 84.5324 31.7487 86.5631C31.5833 86.4319 31.4206 86.3006 31.2558 86.1693C30.9736 85.939 30.6903 85.7099 30.3969 85.494C23.7482 80.6016 16.6207 78.8551 9.21527 80.3089C7.59044 80.5839 6.06305 81.2698 4.77794 82.3015C3.49285 83.3333 2.49268 84.6762 1.87281 86.2035C1.26598 87.8233 1.07711 89.5692 1.32352 91.2816C1.56992 92.9933 2.24394 94.6151 3.28292 95.998C4.35004 97.3717 5.56378 98.6247 6.90303 99.7352L7.3251 100.113C12.2143 104.356 16.283 109.462 19.3289 115.175C23.4875 123.194 28.1716 131.665 33.6501 141.075C35.0763 143.526 37.3613 145.534 39.1911 147.01C42.6428 149.794 46.7736 152.074 52.1904 154.182C56.9837 156.07 62.0898 157.039 67.2417 157.037C73.0844 156.967 78.8707 155.883 84.3426 153.833C88.3797 152.319 92.1176 150.103 95.3835 147.288C101.294 142.374 105.414 135.663 107.976 126.774C111.399 114.966 112.853 102.675 112.276 90.3942C112.028 86.8946 111.254 83.4521 109.979 80.1829C109.175 77.7873 107.556 75.7487 105.404 74.4229C103.253 73.0971 100.704 72.5674 98.2031 72.9264C96.4619 73.2021 94.7646 73.7029 93.1526 74.415C92.4608 74.6834 91.7487 74.9604 91.0162 75.2124C89.611 71.6183 86.5984 69.0324 82.497 67.9113C77.9033 66.6558 74.0972 67.6836 71.181 70.9653ZM43.2289 140.489C42.0612 139.684 41.0454 138.678 40.2282 137.519C38.4627 134.894 36.4134 131.755 34.6 128.391C32.0842 123.724 29.5822 118.781 27.1636 113.699C22.8974 104.729 17.5934 97.8738 10.9519 92.7406C10.8756 92.6842 10.8041 92.6225 10.7376 92.5549C10.5269 92.3324 10.3057 92.1125 10.0812 91.8926C8.81385 90.6364 7.61643 89.4491 8.25833 87.4715C8.95404 85.3319 10.9718 84.9853 12.9296 84.9853C13.0274 84.9853 13.1267 84.9853 13.2225 84.9853C20.3766 85.0995 25.7177 87.7518 29.0919 92.8686C29.7292 93.9745 30.1992 95.169 30.4867 96.4128C30.5871 96.7626 30.6834 97.1098 30.7924 97.4518C31.2361 98.8846 31.9607 100.375 33.9632 100.563C35.604 100.719 37.0061 99.4891 37.5522 97.4367C37.7806 96.5395 37.8853 95.6147 37.8634 94.6893C37.7118 86.3498 37.5402 78.1955 37.3538 70.4527C37.3112 68.6878 37.2345 66.8953 37.1571 65.1619C37.0186 61.9341 36.8749 58.5986 36.9497 55.3234C37.1151 48.0807 37.5469 40.7193 37.9644 33.5987L38.0301 32.4743C38.1718 30.0623 38.7715 27.4947 42.1248 26.6658C44.2992 28.3204 45.61 30.6793 46.1285 33.871C47.0014 39.2386 47.5854 44.1375 47.9116 48.848C48.3638 55.3582 48.7067 61.9866 49.0394 68.397C49.2061 71.6242 49.378 74.8508 49.5547 78.078C49.6368 79.543 50.0207 81.5264 52.3875 81.8336C54.6361 82.127 55.484 80.4021 56.1633 79.0172C56.4409 78.4502 56.7092 77.8739 56.9776 77.2976C57.7613 75.4441 58.7388 73.6792 59.8933 72.0312C60.8778 70.7395 62.1464 70.1114 63.3849 70.3096C64.67 70.515 65.7286 71.5645 66.2897 73.1876C66.7127 74.6447 66.9437 76.151 66.9779 77.6678C67.0087 78.1325 67.0402 78.5959 67.0809 79.0546C67.1131 79.5797 67.1026 80.1068 67.05 80.6299C67.0067 81.1057 66.991 81.5835 67.0028 82.0607C66.9982 82.7118 67.2443 83.3392 67.6893 83.8137C68.135 84.2883 68.746 84.5731 69.3958 84.6099C70.9054 84.8101 71.9824 84.1931 72.4228 82.8712C72.5541 82.4742 72.6519 82.0659 72.7458 81.6708C72.8449 81.2068 72.9742 80.75 73.133 80.303C73.3076 79.8436 73.4763 79.3795 73.6449 78.9155C74.1516 77.3875 74.7843 75.9042 75.5358 74.4806C76.7264 72.3803 78.1428 71.8474 80.5896 72.5825C83.5563 73.4725 85.3297 75.326 85.8594 78.0918C86.1265 79.6959 86.2794 81.3164 86.3188 82.9421C86.3359 83.3162 86.3536 83.6897 86.3739 84.0625C86.4639 85.6988 86.8045 87.2897 88.6757 87.8463C90.8679 88.5026 91.9351 87.0101 92.7641 85.5655L93.0108 85.1343C93.7217 83.8138 94.5316 82.5483 95.4334 81.3499C96.9384 79.455 98.7354 78.5092 100.36 78.7586C101.89 78.9916 103.17 80.2485 103.964 82.2983C105.391 85.786 106.241 89.4832 106.482 93.244C106.903 103.359 105.053 113.202 103.188 121.497C101.941 126.829 99.6668 131.868 96.4934 136.33C93.062 141.256 87.8021 144.872 80.8594 147.076C67.8331 151.22 55.1716 149.001 43.2289 140.489Z" fill="black"/>
<path d="M19.5738 20.9136C20.4526 21.1932 21.333 21.4722 22.2065 21.7669L22.5347 21.8771L22.6933 21.3586C22.7787 21.3652 22.8647 21.3738 22.95 21.3823C23.3841 21.4685 23.8337 21.4302 24.247 21.272L24.4332 21.1788C25.3068 20.743 26.3945 20.2002 26.5993 19.3988C26.7647 18.2635 26.4987 17.1075 25.8542 16.1584C25.2342 15.4072 24.3872 14.8775 23.4404 14.6489C20.4337 13.7431 17.9631 13.0887 15.6646 12.5886C13.6359 12.1476 11.9815 12.8761 11.3494 14.492C10.785 15.9359 11.3053 17.8597 13.3931 18.7411C15.4061 19.5911 17.5247 20.2632 19.5738 20.9136Z" fill="black"/>
<path d="M61.7798 24.7814C62.4094 24.7713 63.024 24.5876 63.5559 24.2505C65.9193 22.7471 68.1841 21.0941 70.3362 19.3016C70.7963 18.8466 71.1271 18.2777 71.2951 17.653C71.345 17.5013 71.4021 17.3525 71.4684 17.2073L71.5052 17.1338V17.0518C71.5426 16.4395 71.4133 15.8286 71.1297 15.2844C70.8468 14.7402 70.4209 14.2832 69.8984 13.9623C69.3648 13.7144 68.7741 13.6166 68.1893 13.6794C67.6045 13.7422 67.048 13.9632 66.5787 14.3188C64.4783 15.7736 62.5052 17.4049 60.6815 19.1947L60.1159 19.7198C58.8898 20.8513 58.6576 22.267 59.4944 23.5055C59.7353 23.8951 60.0714 24.2168 60.4713 24.4401C60.8712 24.6633 61.3217 24.7808 61.7798 24.7814Z" fill="black"/>
<path d="M67.8914 37.1672C66.9345 37.4848 66.0179 38.8979 65.8676 39.9015C65.6523 41.3362 66.6549 42.5268 68.3095 42.7959C69.2245 42.9449 70.1433 43.04 71.116 43.1398C71.5551 43.1851 72.0054 43.2317 72.472 43.2848L72.5101 43.2895L72.5488 43.2848C73.0083 43.2317 73.4887 43.195 73.977 43.1582C75.2477 43.1093 76.5092 42.9165 77.7359 42.5833C78.2636 42.339 78.7315 41.9839 79.1089 41.5421C79.4863 41.1004 79.7633 40.5824 79.9221 40.0236C80.0035 39.7512 80.0284 39.4649 79.995 39.1826C79.9608 38.9003 79.869 38.628 79.7252 38.3827C79.527 38.0659 79.2678 37.7918 78.9626 37.5765C78.6574 37.3611 78.3121 37.2088 77.9472 37.1284C74.1037 36.1833 70.8154 36.1958 67.8914 37.1672Z" fill="black"/>
<path d="M7.14915 38.8008C7.03626 39.5713 8.25782 40.6949 9.00408 40.8852C10.198 41.1535 11.4114 41.3251 12.6328 41.3985C13.1737 41.4471 13.7344 41.4963 14.3198 41.5626L14.3564 41.5666L14.3932 41.5626C14.8014 41.5186 15.2361 41.4871 15.6851 41.4549C16.9533 41.404 18.2126 41.2228 19.4437 40.9141C19.9292 40.6757 20.3434 40.3136 20.6444 39.8642C20.9456 39.4149 21.123 38.8941 21.1588 38.3544C21.1102 37.5064 19.9479 36.0927 19.0921 36.069C15.7408 35.9791 12.387 36.0949 9.04989 36.4156C8.19731 36.4957 7.27648 37.9384 7.14915 38.8008Z" fill="black"/>
<path d="M39.4274 9.70136C39.7274 11.929 40.8255 13.2003 42.4467 13.2003H42.5124C44.2713 13.1649 45.4986 11.6763 45.4973 9.57993C45.4575 7.22948 45.1747 4.88944 44.6538 2.59711C44.4917 1.82526 43.1948 0.987793 42.4223 0.987793H42.4027C41.9281 1.05483 41.4778 1.24024 41.0936 1.527C40.7095 1.81375 40.4038 2.19263 40.2046 2.62863C39.8552 3.75751 39.6034 4.91425 39.4518 6.08619C39.3901 6.47343 39.3328 6.83968 39.2704 7.17441L39.2627 7.21644V7.25841C39.287 7.63186 39.3034 7.95675 39.3178 8.24816C39.3447 8.81195 39.3671 9.25505 39.4274 9.70136Z" fill="black"/>
</g>
<defs>
<clipPath id="clip0">
<rect width="111.577" height="156.208" fill="white" transform="translate(0.868164 0.945801)"/>
</clipPath>
</defs>
</svg>

<svg xmlns="http://www.w3.org/2000/svg" width="113" height="158" fill="none" viewBox="0 0 113 158"><g fill="#000" clip-path="url(#a)"><path d="M71.181 70.965c-1.99-3.375-4.262-5.132-7.319-5.677-3.141-.559-5.703.663-8.507 2.733-.09-1.318-.174-2.606-.257-3.872-.207-3.203-.403-6.228-.706-9.267q-.183-1.85-.357-3.7c-.512-5.383-1.041-10.948-2.017-16.343-.518-2.863-1.838-6.012-4.028-9.628-2.37-3.909-6.366-4.759-10.681-2.276-3.925 2.257-4.853 6.142-5.223 9.274-.287 2.41-.332 4.882-.376 7.272l-.022 1.16q-.06 2.788-.125 5.575c-.149 6.443-.302 13.104-.3 19.657 0 4.868.156 9.814.306 14.597q.1 3.047.18 6.093-.247-.196-.493-.394c-.282-.23-.566-.46-.86-.675-6.648-4.892-13.775-6.639-21.18-5.185a9.66 9.66 0 0 0-7.343 5.895 10.3 10.3 0 0 0 1.41 9.794 24 24 0 0 0 3.62 3.737l.422.378a52.9 52.9 0 0 1 12.004 15.062c4.159 8.019 8.843 16.49 14.321 25.9 1.426 2.451 3.711 4.459 5.541 5.935 3.452 2.784 7.583 5.064 13 7.172a41 41 0 0 0 15.05 2.855 50.5 50.5 0 0 0 17.102-3.204 36.6 36.6 0 0 0 11.04-6.545c5.911-4.914 10.031-11.625 12.593-20.514a111.8 111.8 0 0 0 4.3-36.38 34.9 34.9 0 0 0-2.297-10.211 10.8 10.8 0 0 0-11.776-7.257 20.4 20.4 0 0 0-5.05 1.489c-.692.268-1.404.545-2.137.797-1.405-3.594-4.418-6.18-8.519-7.3-4.594-1.256-8.4-.228-11.316 3.053M43.229 140.49a12 12 0 0 1-3-2.97c-1.766-2.625-3.816-5.764-5.629-9.128a330 330 0 0 1-7.436-14.692c-4.267-8.97-9.57-15.825-16.212-20.958a2 2 0 0 1-.214-.186q-.318-.334-.657-.662c-1.267-1.257-2.465-2.444-1.823-4.421.696-2.14 2.714-2.487 4.672-2.487h.293c7.154.115 12.495 2.767 15.869 7.884a13 13 0 0 1 1.395 3.544c.1.35.196.697.305 1.039.444 1.433 1.169 2.923 3.171 3.111 1.641.156 3.043-1.074 3.59-3.126.228-.897.332-1.822.31-2.748-.151-8.34-.323-16.493-.51-24.236a258 258 0 0 0-.196-5.291c-.138-3.228-.282-6.563-.207-9.839.165-7.242.597-14.604 1.014-21.724l.066-1.125c.142-2.412.742-4.98 4.095-5.808 2.174 1.654 3.485 4.013 4.004 7.205.872 5.368 1.456 10.267 1.783 14.977.452 6.51.795 13.139 1.127 19.549q.25 4.84.516 9.681c.082 1.465.466 3.448 2.833 3.756 2.248.293 3.096-1.432 3.775-2.817.278-.567.546-1.143.815-1.72a28.6 28.6 0 0 1 2.915-5.266c.985-1.291 2.253-1.92 3.492-1.721 1.285.205 2.344 1.254 2.905 2.878.423 1.457.654 2.963.688 4.48q.043.697.103 1.387a10 10 0 0 1-.031 1.575q-.065.715-.047 1.43a2.536 2.536 0 0 0 2.393 2.55c1.51.2 2.586-.417 3.027-1.739.131-.397.229-.805.323-1.2q.148-.697.387-1.368.26-.691.512-1.388a29 29 0 0 1 1.89-4.434c1.191-2.1 2.608-2.634 5.055-1.898 2.966.89 4.74 2.743 5.27 5.509a35 35 0 0 1 .459 4.85q.025.561.055 1.12c.09 1.637.43 3.228 2.302 3.784 2.192.657 3.26-.836 4.088-2.28l.247-.432a29.6 29.6 0 0 1 2.422-3.784c1.505-1.895 3.302-2.84 4.927-2.591 1.53.233 2.81 1.49 3.604 3.54a34.8 34.8 0 0 1 2.518 10.945c.421 10.115-1.429 19.958-3.294 28.253a42.2 42.2 0 0 1-6.695 14.833c-3.431 4.926-8.69 8.542-15.634 10.746-13.026 4.144-25.687 1.925-37.63-6.587M19.574 20.914c.879.28 1.759.558 2.632.853l.329.11.158-.518q.13.01.257.023c.434.086.884.048 1.297-.11l.186-.093c.874-.436 1.962-.979 2.166-1.78a4.6 4.6 0 0 0-.745-3.24 4.5 4.5 0 0 0-2.414-1.51c-3.006-.906-5.477-1.56-7.775-2.06-2.03-.441-3.683.287-4.316 1.903-.564 1.444-.044 3.368 2.044 4.25 2.013.85 4.132 1.521 6.18 2.172m42.207 3.867a3.4 3.4 0 0 0 1.776-.53 66 66 0 0 0 6.78-4.95c.46-.454.791-1.023.96-1.648q.073-.227.172-.446l.037-.073v-.082a3.38 3.38 0 0 0-1.607-3.09 3.24 3.24 0 0 0-3.32.357 45 45 0 0 0-5.897 4.876l-.565.525c-1.226 1.131-1.458 2.547-.622 3.786a2.69 2.69 0 0 0 2.286 1.275"/><path d="M67.891 37.167c-.957.318-1.873 1.73-2.023 2.734-.216 1.435.787 2.626 2.442 2.895.915.149 1.833.244 2.806.344q.659.066 1.356.145l.038.005.039-.005c.46-.053.94-.09 1.428-.127a16.8 16.8 0 0 0 3.759-.575 4.03 4.03 0 0 0 2.186-2.56 2.08 2.08 0 0 0-.197-1.64 2.8 2.8 0 0 0-1.778-1.255c-3.843-.945-7.132-.932-10.056.04M7.15 38.8c-.114.771 1.108 1.895 1.854 2.085 1.194.269 2.407.44 3.629.514.54.048 1.101.097 1.687.164l.036.004.037-.004a36 36 0 0 1 1.292-.108 18.5 18.5 0 0 0 3.759-.54 3.08 3.08 0 0 0 1.715-2.56c-.049-.849-1.211-2.262-2.067-2.286a82 82 0 0 0-10.042.347c-.853.08-1.774 1.522-1.9 2.385m32.277-29.1c.3 2.228 1.398 3.5 3.02 3.5h.065c1.76-.036 2.987-1.525 2.985-3.621a34 34 0 0 0-.843-6.983c-.162-.772-1.46-1.61-2.232-1.61h-.02a2.86 2.86 0 0 0-2.197 1.642 20.7 20.7 0 0 0-.753 3.457c-.062.387-.12.754-.182 1.088l-.007.042v.042c.024.374.04.699.055.99.027.564.05 1.007.11 1.453"/></g><defs><clipPath id="a"><path fill="#fff" d="M.868.946h111.577v156.208H.868z"/></clipPath></defs></svg>
